!!!COM: Schiørring, Niels
!!!CDT: 1743-1798
!!!OPR@@DA: Choral-Bog
!!!ONM: 77
!!!OTL@@DA: Nu vel an! vær friſk til Mode
**kern	**fb	**kern	**kern	**kern	**kern	**kern	**kern	**kern
*part6	*part6	*part6	*part5	*part5	*part4	*part3	*part2	*part1
*staff8	*	*staff7	*staff6	*staff5	*staff4	*staff3	*staff2	*staff1
*clefF4	*	*clefC1	*clefF4	*clefC1	*clefF4	*clefC4	*clefC3	*clefC1
*mclefF4	*	*mclefG2	*mclefF4	*mclefG2	*mclefF4	*mclefGv2	*mclefG2	*mclefG2
*k[f#]	*	*k[f#]	*k[f#]	*k[f#]	*k[f#]	*k[f#]	*k[f#]	*k[f#]
*G:	*	*G:	*G:	*G:	*G:	*G:	*G:	*G:
*M4/4	*	*M4/4	*M4/4	*M4/4	*M4/4	*M4/4	*M4/4	*M4/4
*met(c)	*	*met(c)	*met(c)	*met(c)	*met(c)	*met(c)	*met(c)	*met(c)
*MM180	*	*MM180	*MM180	*MM180	*MM180	*MM180	*MM180	*MM180
=1	=1	=1	=1	=1	=1	=1	=1	=1
*	*	*	*^	*^	*	*	*	*
2G	.	2b	2d	2G	2b	2g	2G	2d	2g	2b
2E	6	2cc	2c	2E	2cc	2g	2E	2e	2g	2cc
=2	=2	=2	=2	=2	=2	=2	=2	=2	=2	=2
2BB	6	2dd	2G	2BB	2dd	2g	2BB	2d	2g	2dd
2GG	.	2dd	[2G	2GG	2dd	2b	2GG	2B	[2g	2dd
=3	=3	=3	=3	=3	=3	=3	=3	=3	=3	=3
2AA	7	2cc	4G]	2AA	2cc	2a	2AA	2c	(4g]	2cc
4BB	6	2b	[2G	4BB	2b	2d	(4BB	2d	[2g	2b
4C	.	.	.	4C	.	.	4C)	.	.	.
=4	=4	=4	=4	=4	=4	=4	=4	=4	=4	=4
1D	4	2a	2G]	1D	2a	1d	2D	2d	2g]	2a
.	3	2a	2F#	.	2a	.	2D	2d	2f#	2a
=5	=5	=5	=5	=5	=5	=5	=5	=5	=5	=5
2D#X	5	2b	2A	2D#X	2b	2f#	2D#X	2A	2f#	2b
2E	6	2cc	2G	2E	2cc	2g	2E	2G	2g	2cc
=6	=6	=6	=6	=6	=6	=6	=6	=6	=6	=6
2F#	6	(4ddni	2A	2F#	4ddni	1dni	2F#	2A	2d	(4dd
.	5	4cc)	.	.	4cc	.	.	.	.	4cc)
2G	.	2b	[2G	2G	2b	.	2G	[2G	2d	2b
=7	=7	=7	=7	=7	=7	=7	=7	=7	=7	=7
2C	6 5	2a	2G]	2C	2a	2e	2C	2G]	2e	2a
2D	8	2a	4F#	2D	2a	2d	2D	(4F#	2d	2a
=8	=8	=8	=8	=8	=8	=8	=8	=8	=8	=8
1GG	4	1g	1ryy	1GG	2c	1d	1GG	(4c]	1d	1g
.	.	.	.	.	.	.	.	4A	.	.
=9:|!	=9:|!	=9:|!	=9:|!	=9:|!	=9:|!	=9:|!	=9:|!	=9:|!	=9:|!	=9:|!
2F#	6	2a	1ryy	2F#	2d	2f#	2F#	2A	2d	2a
2E	7 #	2b	.	2E	2d	2g#X	2E	2G#X	2d	2b
=10	=10	=10	=10	=10	=10	=10	=10	=10	=10	=10
2AA	.	2cc	2ryy	2AA	2c	2e	2AA	2A	2c	2cc
2Fn	.	2cc	[2A	2Fn	2cc	2fn	2Fn	[2A	2c	2cc
=11	=11	=11	=11	=11	=11	=11	=11	=11	=11	=11
2D	6 5 n	2b	2A]	2D	2b	2fn	2D	2A]	2fn	2b
2E	#	2b	2G#X	2E	2b	2e	2E	2G#X	2e	2b
=12	=12	=12	=12	=12	=12	=12	=12	=12	=12	=12
*	*	*	*	*	*	*^	*	*	*	*
1AA	.	1a	1A	1AA	1a	1e	1c\	1AA	1A	1c	1a
=13	=13	=13	=13	=13	=13	=13	=13	=13	=13	=13	=13
2E	6	2cc	2G	2E	2cc	2g	1r	2E	2G	2g	2cc
2D	6 n	2dd	2B	2D	2dd	2fn	.	2D	2B	2fn	2dd
=14	=14	=14	=14	=14	=14	=14	=14	=14	=14	=14	=14
2C	.	2ee	2c	2C	2ee	2g	1r	2C	2c	2g	2ee
2A	.	2ee	[2c	2A	2ee	2cc	.	2A	[2c	2a	2ee
=15	=15	=15	=15	=15	=15	=15	=15	=15	=15	=15	=15
2Fn	6 5	2dd	2c]	2Fn	2dd	2a	1r	2Fn	2c]	2a	2dd
2G	.	2dd	2B	2G	2dd	2g	.	2G	2B	2g	2dd
=16	=16	=16	=16	=16	=16	=16	=16	=16	=16	=16	=16
1C	.	1cc	1c	1C	1cc	1g	1e\	1C	1c	1e	1cc
*	*	*	*	*	*	*v	*v	*	*	*	*
=17	=17	=17	=17	=17	=17	=17	=17	=17	=17	=17
2E	.	2b	1G	2E	2b	2g	2E	2G	2g	2b
2C	.	2cc	.	2C	2cc	2e	2C	2G	2e	2cc
=18	=18	=18	=18	=18	=18	=18	=18	=18	=18	=18
2BB	6	2dd	2G	2BB	2dd	2d	2BB	2G	2d	2dd
2GG#X	5	2dd	2E	2GG#X	2dd	2b	2GG#X	2B	2e	2dd
=19	=19	=19	=19	=19	=19	=19	=19	=19	=19	=19
2AA	5	2cc	4E	2AA	2cc	2a	2AA	2c	(4e	2cc
2BB	6	2b	[2Gni	2BB	2b	2d	2BB	2d	[2g	2b
=20	=20	=20	=20	=20	=20	=20	=20	=20	=20	=20
2C#X	5	2a	2G]	2C#X	2a	2e	2C#X	2e	2g]	2a
2D	.	2a	2F#	2D	2a	2d	2D	2d	2f#	2a
=21	=21	=21	=21	=21	=21	=21	=21	=21	=21	=21
2G	.	2b	2G	2G	2b	2d	2G	2d	2g	2b
2E	6	2ccni	2G	2E	2ccni	2g	2E	2c	2g	2cc
=22	=22	=22	=22	=22	=22	=22	=22	=22	=22	=22
2F#	6	(4dd	2A	2F#	4dd	1d	2F#	2A	2a	(4dd
.	5	4cc)	.	.	4cc	.	.	.	.	4cc)
2G	.	2b	[2G	2G	2b	.	2G	2d	[2g	2b
=23	=23	=23	=23	=23	=23	=23	=23	=23	=23	=23
2C	6 5	2a	2G]	2C	2a	2e	2C	2e	2g]	2a
2D	8	2a	4F#	2D	2a	2d	2D	(4d	2f#	2a
=24	=24	=24	=24	=24	=24	=24	=24	=24	=24	=24
1GG	4	2g	1ryy	1GG	2c	2d	2GG	2c	(4g	2g
.	.	.	.	.	.	.	.	.	4d)	.
.	3	2g	.	.	2B	2d	2GG	2B	2d	2g
*	*	*	*v	*v	*	*	*	*	*	*
*	*	*	*	*v	*v	*	*	*	*
==	==	==	==	==	==	==	==	==
*-	*-	*-	*-	*-	*-	*-	*-	*-
!!!system-decoration: {(s1,s2,s3,s4)}{(s5,s6)}{(s7,s8)}
!!!RDF**kern: i = editorial accidental
!!!RDF**kern: > = above
!!!RDF**kern: < = below
!!!AGN: chorale
!!!EED: Derek Remeš
!!!EED2: Victor Phan
!!!END: 2023/11/28
!!!ENC: Wolfgang Drescher
!!!EEV: 2023/11/30
!!!title: @{ONM}. @{OTL}